X: 47
T: Road to Boston
M:4/4
L:1/4
K: G
|: uA | "G" vB2 B (A/B/) | "C" c B A G | "D" F G A B | "G" G D B, D |
        "G"  B2 B (A/B/) | "C" c B A G | "D" F G A B | "G" G2 uG :|
|: (uB/c/) | "G" vd2 d (^c/d/) | "C" e d =c B | "Am" c2 c (B/c/) | "D" d c B A |
         "G" B2 B (A/B/) | "C" c B A G | "D" F G A B | "G" G2 uG :|

% Mostly Bill's chords.  Some alterations by Ellen.
